svg/uf00df-team_alpha.svg

<svg height="960" style="" width="1200" xmlns="http://www.w3.org/2000/svg"><path d="m600 0-480 480 480 480 480-480zm0 120.05859 178.41798 178.35938h-103.18362l-75.23436-75.23438-75.23436 75.23438h-103.125zm181.58202 181.52343 178.47657 178.41798-178.47657 178.47657v-103.24221l75.23439-75.23436-75.23439-75.23436zm-363.16405.0586v103.125l-75.23438 75.23438 75.23438 75.23436v103.18362l-178.35938-178.41798zm181.58203 22.26563c86.22 0 156.09375 69.87375 156.09375 156.09375s-69.87375 156.09375-156.09375 156.09375-156.09375-69.87375-156.09375-156.09375 69.87375-156.09375 156.09375-156.09375zm-178.41798 337.67577h103.18362l75.23436 75.23439 75.23436-75.23439h103.24221l-178.47657 178.47657z" style="stroke-width:30"/></svg>

<svg xmlns="http://www.w3.org/2000/svg" width="1200" height="960">
    <path d="M600 0 120 480l480 480 480-480zm0 120.059 178.418 178.359H675.234L600 223.184l-75.234 75.234H421.64zm181.582 181.523L960.059 480 781.582 658.477V555.234L856.816 480l-75.234-75.234zm-363.164.059v103.125L343.184 480l75.234 75.234v103.184L240.058 480zM600 323.906c86.22 0 156.094 69.874 156.094 156.094S686.22 636.094 600 636.094 443.906 566.22 443.906 480 513.78 323.906 600 323.906M421.582 661.582h103.184L600 736.816l75.234-75.234h103.243L600 840.059z" style="stroke-width:30"/>
</svg>
